X:3659
T:Life in London. HSJJ.090
O:england
M:6/8
L:1/8
Q:110
S:HSJ Jackson,Wyresdale,Lancs.1823
R:Quadrille
A:Lancashire
H:1823
K:A
c3AGA|cfeB3|d3FBA|GEF GAB|c3AGA|BfdB3|F2B EFG|B3A2z:|
|~B3gfe|^de^e fga|~B3agf|ga^a b3|~B3gfe|dcf|agf|bge {e}^dcd|efe"DC" Be^
d|]


